X:1
T: Coming over the Hills
C:
R:Reel
Q: 232
K:G
M:4/4
L:1/8
|:Bd cA d2 cA|DG ((3GFG) AB cA|Bd cA G2 GF|DF ((3FEF) AB cA|
Bd cA d2 cA|DG ((3GFG) AB cA|Bd cA G2 GF|DF ((3FEF) AB cA|
K:D
Ad dc d2 dc|Ad ((3dcd) ef ge|fd ec d2 dc|AG FG AB =cB|
Ad dc d2 dc|Ad ((3dcd) ef ge|fa ef d2 dc|AG FG AB =cA:|
